X:3157
L:1/8
M:3/4
K:D
"D" A>B A2 d2 | A>B A>G F2 |"A7" G>A G2 e2 |"D" f>g fe d2 | A>B A2 d2 | A>B A>G F2 | 
"A7" G>A G2 e>f |"D" d2 d2 z2 ::"G" B>B B>d c>B |"D" A>f f2 A2 |"A7" G>e e2 G2 |"D" F>d d2 F2 | 
"G" B>B B>d c>B |"D" A>f f2 A2 |"A7" G>e e2 c2 |"D" d2 d2 z2 :|[K:G]"G" B>d d2 d2 | e>d d2 d2 | 
 g>f e>d c>B |"D7" d2 c2 c2 | F>G A>B c>d | .f2 !>!f4 | F>G A>B c>d |"G" .e2 !>!d4 | B>d d2 d2 | 
 e>d d2 d2 | g>f e>d c>B |"D7" d2 c2 c2 | F>G A>B c>e |"G" d>g g2 B2 |"D7" c>a a2 f2 | 
"G" g2 g2 z2 |]

